X: 36026
T: Scan Tester's Country Step Dance
R: hornpipe
M: 4/4
K: Gmajor
|:D2|G2 G>A B2 B2|A>G A>B G2 d2|e2 e2 d>B G2|G>F G>B A>F D2|
G2 G>A B2 B2|A>G A>B G2 d2|e2 e2 d>B G>A|1 B2 A2 G2:|2 B2 A2 G4||
|:d3 z e3 z|G>G G>A B3 z|c2 c>e d>B G2|G>F G>B A>F D2|
d3 z e3 z|G>G G>A B3 z|c2 c>e d>B G>A|1 B2 A2 G4:|2 B2 A2 G2||

